X:562
T:The Northern Lights of Old Aberdeen (in D)
Z:Jack Campin, http://www.campin.me.uk/
F:Jack Campin's Nine-Note Tunebook
% last edit 03-02-2013
M:3/4
L:1/4
Q:1/4=128
K:D
   A|A F G|A2  A|d c B|A3     |G A G|F2  E|(A3-|A2)
   A|A2  F|A2  A|d c B|A3     |G A G|F2  E|(D3-|D2)
   A|B G B|d c B|A3   |A2 A/A/|B G B|d c B|(c3-|c2)
   A|A A F|A2  A|d c B|A3     |G A G|F F E|(D3-|D2)||
   A|D2  D|F2  F|E D E|D2 A   |B2  B|G A B|(A3-|A2)
[1 A|B2  B|G2  B|A2  F|E2 D   |E2  E|F2  D|(A3-|A2):|
[2 A|B2  G|d2  B|A2  F|d2 d   |d2  B|c2  d|(d3-|d3)|]

